svgs/sharp-solid/video-plus.svg

<svg xmlns="http://www.w3.org/2000/svg" viewBox="0 0 576 512"><!--! Font Awesome Pro 6.6.0 by @fontawesome - https://fontawesome.com License - https://fontawesome.com/license (Commercial License) Copyright 2024 Fonticons, Inc. --><path d="M0 64l384 0 0 384L0 448 0 64zm576 0l0 384L416 337.1l0-162.3L576 64zM216 184l0-24-48 0 0 24 0 48-48 0-24 0 0 48 24 0 48 0 0 48 0 24 48 0 0-24 0-48 48 0 24 0 0-48-24 0-48 0 0-48z"/></svg>

<svg xmlns="http://www.w3.org/2000/svg" viewBox="0 0 576 512"><!--! Font Awesome Pro 6.4.2 by @fontawesome - https://fontawesome.com License - https://fontawesome.com/license (Commercial License) Copyright 2023 Fonticons, Inc. --><path d="M0 64H384V448H0V64zm576 0V448L416 337.1V174.9L576 64zM216 184V160H168v24 48H120 96v48h24 48v48 24h48V328 280h48 24V232H264 216V184z"/></svg>
